zondicons/svg/view-tile.svg

<svg xmlns="http://www.w3.org/2000/svg" viewBox="0 0 20 20"><path d="M0 0h9v9H0V0zm2 2v5h5V2H2zm-2 9h9v9H0v-9zm2 2v5h5v-5H2zm9-13h9v9h-9V0zm2 2v5h5V2h-5zm-2 9h9v9h-9v-9zm2 2v5h5v-5h-5z"/></svg>

<svg width="20px" height="20px" viewBox="0 0 20 20" version="1.1" xmlns="http://www.w3.org/2000/svg" xmlns:xlink="http://www.w3.org/1999/xlink"><title>view-tile</title><desc>Created with Sketch.</desc><defs></defs><g id="Page-1" stroke="none" stroke-width="1" fill="none" fill-rule="evenodd"><g id="view-tile" fill="#000000"><path d="M0,0 L9,0 L9,9 L0,9 L0,0 Z M2,2 L7,2 L7,7 L2,7 L2,2 Z M0,11 L9,11 L9,20 L0,20 L0,11 Z M2,13 L7,13 L7,18 L2,18 L2,13 Z M11,0 L20,0 L20,9 L11,9 L11,0 Z M13,2 L18,2 L18,7 L13,7 L13,2 Z M11,11 L20,11 L20,20 L11,20 L11,11 Z M13,13 L18,13 L18,18 L13,18 L13,13 Z" id="Combined-Shape"></path></g></g></svg>
